image/benefits/icon-6.svg

<svg width="49" height="48" viewBox="0 0 49 48" fill="none" xmlns="http://www.w3.org/2000/svg">
<path d="M25.3359 9C25.3359 8.44772 24.8882 8 24.3359 8C23.7837 8 23.3359 8.44772 23.3359 9L25.3359 9ZM23.3359 39L23.3359 40L25.3359 40L25.3359 39L23.3359 39ZM23.3359 9L23.3359 39L25.3359 39L25.3359 9L23.3359 9Z" fill="#2E2E2E"/>
<path d="M40.3359 9C40.3359 8.44772 39.8882 8 39.3359 8C38.7837 8 38.3359 8.44772 38.3359 9L40.3359 9ZM38.3359 13L38.3359 14L40.3359 14L40.3359 13L38.3359 13ZM38.3359 9L38.3359 13L40.3359 13L40.3359 9L38.3359 9Z" fill="#2E2E2E"/>
<path d="M10.3359 9C10.3359 8.44772 9.88822 8 9.33594 8C8.78365 8 8.33594 8.44772 8.33594 9L10.3359 9ZM8.33594 13L8.33594 14L10.3359 14L10.3359 13L8.33594 13ZM8.33594 9L8.33594 13L10.3359 13L10.3359 9L8.33594 9Z" fill="#2E2E2E"/>
<path d="M9.33594 9L39.3359 9" stroke="#2E2E2E" stroke-width="2" stroke-linecap="round"/>
<path d="M4.24464 21.9855L8.44074 14.992C8.8377 14.3304 9.80263 14.3485 10.1745 15.0246L14.0209 22.0181C14.3874 22.6845 13.9053 23.5 13.1447 23.5H5.10213C4.32483 23.5 3.84472 22.652 4.24464 21.9855Z" stroke="#C63031" stroke-width="2"/>
<path d="M34.2446 21.9855L38.4407 14.992C38.8377 14.3304 39.8026 14.3485 40.1745 15.0246L44.0209 22.0181C44.3874 22.6845 43.9053 23.5 43.1447 23.5H35.1021C34.3248 23.5 33.8447 22.652 34.2446 21.9855Z" stroke="#C63031" stroke-width="2"/>
<path d="M34.3359 23C34.3359 24.5 36.1359 27 39.3359 27C42.5359 27 43.8359 24 43.8359 23" stroke="#C63031" stroke-width="2"/>
<path d="M4.33594 23C4.33594 24.5 6.13594 27 9.33594 27C12.5359 27 13.8359 24 13.8359 23" stroke="#C63031" stroke-width="2"/>
<path d="M14.3359 39H33.3359" stroke="#2E2E2E" stroke-width="2" stroke-linecap="square"/>
</svg>

<svg width="49" height="48" fill="none" xmlns="http://www.w3.org/2000/svg"><path d="M25.336 9a1 1 0 1 0-2 0h2Zm-2 30v1h2v-1h-2Zm0-30v30h2V9h-2ZM40.336 9a1 1 0 1 0-2 0h2Zm-2 4v1h2v-1h-2Zm0-4v4h2V9h-2ZM10.336 9a1 1 0 1 0-2 0h2Zm-2 4v1h2v-1h-2Zm0-4v4h2V9h-2Z" fill="#2E2E2E"/><path d="M9.336 9h30" stroke="#2E2E2E" stroke-width="2" stroke-linecap="round"/><path d="m4.245 21.985 4.196-6.993a1 1 0 0 1 1.733.033l3.847 6.993a1 1 0 0 1-.876 1.482H5.102a1 1 0 0 1-.857-1.515ZM34.245 21.985l4.196-6.993a1 1 0 0 1 1.733.033l3.847 6.993a1 1 0 0 1-.876 1.482h-8.043a1 1 0 0 1-.857-1.515Z" stroke="#C63031" stroke-width="2"/><path d="M34.336 23c0 1.5 1.8 4 5 4s4.5-3 4.5-4M4.336 23c0 1.5 1.8 4 5 4s4.5-3 4.5-4" stroke="#C63031" stroke-width="2"/><path d="M14.336 39h19" stroke="#2E2E2E" stroke-width="2" stroke-linecap="square"/></svg>
